X: 33447
T: Rabbit, The
R: slip jig
M: 9/8
K: Gmajor
|:d2 B BAG A2 B|G2 B BAG ABc|d2 B BAG A2 B|G2 B AGF G3:|
|:d2 B BAG ABd|e3 ede g2 a|bag agf ged|e/f/ge dBG ABc:|

